icons/unverifed-24.svg

<svg width="24" height="24" viewBox="0 0 24 24" xmlns="http://www.w3.org/2000/svg">
  <path d="M13 16.5C13 17.0523 12.5523 17.5 12 17.5C11.4477 17.5 11 17.0523 11 16.5C11 15.9477 11.4477 15.5 12 15.5C12.5523 15.5 13 15.9477 13 16.5Z"/>
  <path d="M10.4833 8.83541C10.5951 8.61188 10.7509 8.41117 10.9707 8.26466C11.1858 8.12129 11.5062 8 12 8C12.3839 8 12.7664 8.11781 13.0344 8.31875C13.2823 8.50467 13.4375 8.76009 13.4375 9.125C13.4375 9.60442 13.2191 9.93518 12.8164 10.3111C12.6785 10.4397 12.5503 10.5467 12.4083 10.665C12.3179 10.7404 12.2219 10.8205 12.1142 10.9138C11.8684 11.1269 11.5902 11.3876 11.3759 11.7091L11.25 11.8981V13.5C11.25 13.9142 11.5858 14.25 12 14.25C12.4142 14.25 12.75 13.9142 12.75 13.5V12.38C12.8392 12.2796 12.9531 12.1717 13.0967 12.0473C13.1602 11.9922 13.2364 11.9284 13.3187 11.8596C13.4853 11.7201 13.6772 11.5595 13.8399 11.4077C14.3746 10.9086 14.9375 10.2081 14.9375 9.125C14.9375 8.2399 14.5198 7.55783 13.9344 7.11875C13.3689 6.69469 12.6577 6.5 12 6.5C11.2437 6.5 10.6267 6.69121 10.1386 7.01659C9.65528 7.33883 9.3424 7.76312 9.14166 8.16459C8.95642 8.53507 9.10659 8.98558 9.47707 9.17082C9.84756 9.35606 10.2981 9.20589 10.4833 8.83541Z"/>
  <path fill-rule="evenodd" clip-rule="evenodd" d="M9.86399 1.19988C11.1351 0.266706 12.8649 0.266707 14.136 1.19988L15.5113 2.20955C15.7854 2.41073 16.104 2.5427 16.44 2.59422L18.1265 2.85278C19.6851 3.09174 20.9083 4.31488 21.1472 5.87355L21.4058 7.56C21.4573 7.89603 21.5893 8.21463 21.7904 8.48866L22.8001 9.86399C23.7333 11.1351 23.7333 12.8649 22.8001 14.136L21.7904 15.5113C21.5893 15.7854 21.4573 16.104 21.4058 16.44L21.1472 18.1265C20.9083 19.6851 19.6851 20.9083 18.1265 21.1472L16.44 21.4058C16.104 21.4573 15.7854 21.5893 15.5113 21.7904L14.136 22.8001C12.8649 23.7333 11.1351 23.7333 9.86399 22.8001L8.48866 21.7904C8.21462 21.5893 7.89603 21.4573 7.56 21.4058L5.87355 21.1472C4.31487 20.9083 3.09174 19.6851 2.85278 18.1265L2.59422 16.44C2.5427 16.104 2.41073 15.7854 2.20955 15.5113L1.19988 14.136C0.266706 12.8649 0.266707 11.1351 1.19988 9.86399L2.20955 8.48866C2.41073 8.21463 2.5427 7.89603 2.59422 7.56L2.85278 5.87355C3.09174 4.31487 4.31488 3.09174 5.87355 2.85278L7.56 2.59422C7.89603 2.5427 8.21462 2.41073 8.48866 2.20955L9.86399 1.19988ZM13.2483 2.40903C12.5055 1.86366 11.4945 1.86366 10.7517 2.40903L9.37633 3.4187C8.90744 3.76293 8.36229 3.98874 7.78732 4.07689L6.10087 4.33545C5.18994 4.47511 4.47511 5.18994 4.33545 6.10087L4.07689 7.78732C3.98874 8.36229 3.76293 8.90744 3.4187 9.37633L2.40903 10.7517C1.86366 11.4945 1.86366 12.5055 2.40903 13.2483L3.4187 14.6237C3.76293 15.0926 3.98874 15.6377 4.07689 16.2127L4.33545 17.8991C4.47511 18.8101 5.18994 19.5249 6.10087 19.6645L7.78732 19.9231C8.36229 20.0113 8.90744 20.2371 9.37633 20.5813L10.7517 21.591C11.4945 22.1363 12.5055 22.1363 13.2483 21.591L14.6237 20.5813C15.0926 20.2371 15.6377 20.0113 16.2127 19.9231L17.8991 19.6645C18.8101 19.5249 19.5249 18.8101 19.6645 17.8991L19.9231 16.2127C20.0113 15.6377 20.2371 15.0926 20.5813 14.6237L21.591 13.2483C22.1363 12.5055 22.1363 11.4945 21.591 10.7517L20.5813 9.37633C20.2371 8.90744 20.0113 8.36229 19.9231 7.78732L19.6645 6.10087C19.5249 5.18994 18.8101 4.47511 17.8991 4.33545L16.2127 4.07689C15.6377 3.98874 15.0926 3.76293 14.6237 3.4187L13.2483 2.40903Z"/>
</svg>

<svg xmlns="http://www.w3.org/2000/svg" width="24" height="24" viewBox="0 0 24 24"><path d="M13 16.5a1 1 0 11-2 0 1 1 0 012 0zm-2.517-7.665c.112-.223.268-.424.488-.57C11.186 8.12 11.506 8 12 8c.384 0 .766.118 1.034.319a.953.953 0 01.403.806c0 .48-.218.81-.62 1.186a9.293 9.293 0 01-.409.354 19.8 19.8 0 00-.294.249c-.246.213-.524.474-.738.795l-.126.19V13.5a.75.75 0 001.5 0v-1.12c.09-.1.203-.208.347-.333.063-.055.14-.119.222-.187.166-.14.358-.3.52-.452.536-.5 1.098-1.2 1.098-2.283a2.45 2.45 0 00-1.003-2.006C13.37 6.695 12.658 6.5 12 6.5c-.756 0-1.373.191-1.861.517a2.944 2.944 0 00-.997 1.148.75.75 0 001.341.67z"/><path fill-rule="evenodd" d="M9.864 1.2a3.61 3.61 0 014.272 0l1.375 1.01c.274.2.593.333.929.384l1.686.259a3.61 3.61 0 013.021 3.02l.259 1.687c.051.336.183.655.384.929l1.01 1.375a3.61 3.61 0 010 4.272l-1.01 1.375a2.11 2.11 0 00-.384.929l-.259 1.686a3.61 3.61 0 01-3.02 3.021l-1.687.259a2.11 2.11 0 00-.929.384l-1.375 1.01a3.61 3.61 0 01-4.272 0l-1.375-1.01a2.11 2.11 0 00-.929-.384l-1.686-.259a3.61 3.61 0 01-3.021-3.02l-.259-1.687a2.11 2.11 0 00-.384-.929L1.2 14.136a3.61 3.61 0 010-4.272l1.01-1.375a2.11 2.11 0 00.384-.929l.259-1.686a3.61 3.61 0 013.02-3.021l1.687-.259a2.11 2.11 0 00.929-.384L9.864 1.2zm3.384 1.209a2.11 2.11 0 00-2.496 0l-1.376 1.01a3.61 3.61 0 01-1.589.658l-1.686.258a2.11 2.11 0 00-1.766 1.766l-.258 1.686a3.61 3.61 0 01-.658 1.59l-1.01 1.375a2.11 2.11 0 000 2.496l1.01 1.376a3.61 3.61 0 01.658 1.589l.258 1.686a2.11 2.11 0 001.766 1.765l1.686.26a3.61 3.61 0 011.59.657l1.375 1.01a2.11 2.11 0 002.496 0l1.376-1.01a3.61 3.61 0 011.589-.658l1.686-.258a2.11 2.11 0 001.765-1.766l.26-1.686a3.61 3.61 0 01.657-1.59l1.01-1.375a2.11 2.11 0 000-2.496l-1.01-1.376a3.61 3.61 0 01-.658-1.589l-.258-1.686a2.11 2.11 0 00-1.766-1.766l-1.686-.258a3.61 3.61 0 01-1.59-.658l-1.375-1.01z"/></svg>
